!!!id: BC063
!!!page: 79
!!!COM: Anonymous
!!!PTL@@FR: Les 100 plus belles chansons
!!!OTL@@FR: La rim doum dim
!!!PUB: La Bonne Chanson, inc.
!!!YEM: On ne peut reproduire, enregistrer ou diffuser en tout ou en partie le présent ouvrage, sous quelque procédé que ce soit, électronique, mécanique, photographique, sonore, magnétique ou autre, sans avoir obtenu au préalable l'autorisation écrite de l'éditrice.
!!!PDT: 2011
!!!SMA: 2012 Bibliothèque nationale du Québec; Biblothèque nationale du Canada
!!!AGN-Laforte: Strophique (avec refrain), 3:4(4+4)
!!!AGN-type: Chanson d'écoliers
!!!AGN-rime: croisées (abab)
**kern	**text	**text	**text
*clefG2	*	*	*
*k[b-]	*	*	*
*F:	*	*	*
*M2/4	*	*	*
*	*v:1	*v:2	*v:3
*	*pline:1	*pline:5	*pline:9
{{8c	Quand	Dans	Quand
8c	on	notr[e]	on
8f	est	é-	s'a-
=1	=1	=1	=1
8f	jeun[e],	col[e],	mus[e]
8a	on	on	hon-
8a	est	est	-nê-
8cc	heu-	joy-	-te-
=2	=2	=2	=2
8.cc}	-reux,	-eux,	-ment,
*	*	*	*
*	*	*	*
*	*	*	*
*	*pline:2	*pline:6	*pline:10
{16a	On	C'est	On
8b-	aim[e]	la	est
8g	à	re-	ex-
!!LO:PB:g=original
=3	=3	=3	=3
8.g	rir[e]	cet-	-empt
16g	et	-te	d'a-
8a	à	du	-mers
8f	chan-	bon-	re-
=4	=4	=4	=4
8f,}}	-ter;	-heur;	-grets;
*	*	*	*
*	*	*	*
*	*	*	*
*	*pline:3	*pline:7	*pline:11
{{8c	A-	A-	On
8c	-mu-	-près	a
8f	-sons-	l'é-	pour-
=5	=5	=5	=5
8f	-nous	-tu-	-tant
8a	de	-de	plus
8a	no-	vient	d'a-
8cc	-tre	le	-gré-
=6	=6	=6	=6
8.cc}	mieux:	jeu:	-ment:
*	*	*	*
*	*	*	*
*	*	*	*
*	*pline:4	*pline:8	*pline:12
{16a	C'est	On	Si
8b-	le	est	tout
8g	se-	tou-	le
!!LO:PB:g=original
=7	=7	=7	=7
8e	-cret	-jours	mon-
8c	de	de	-de
8d	la	bonn[e]	le
8e	san-	hu-	sa-
=8	=8	=8	=8
8.f}}	-té!	-meur.	-vait!
*	*	*	*
*	*	*	*
*	*	*	*
=||	=||	=||	=||
*>Refrain	*>Refrain	*>Refrain	*>Refrain
!!LO:TX:a:B:t=REFRAIN
*	*pline:R1Ha	*	*
{{16cc	La	.	.
8cc	rim	.	.
8b-	doum	.	.
=9	=9	=9	=9
8.a	dim,	.	.
*	*pline:R1Hb	*	*

16a	La	.	.
8a	rim	.	.
8g	doum	.	.
!!LO:PB:g=original
=10	=10	=10	=10
8.f}	doum,	.	.
*	*pline:R1Har	*	*
{16cc	La	.	.
8cc	rim	.	.
8cc	doum	.	.
=11	=11	=11	=11
8b-	dim,	.	.
*	*pline:R2	*	*
8a	doum	.	.
8b-	dim	.	.
8a	doum	.	.
=12	=12	=12	=12
8.g}}	doum,	.	.
*	*pline:R1Har	*	*
{{16g	La	.	.
8g	rim	.	.
8f	doum	.	.
!!LO:PB:g=original
=13	=13	=13	=13
8.e	dim,	.	.
*	*pline:R1Hbr	*	*
16e	La	.	.
8e	rim	.	.
8d	doum	.	.
=14	=14	=14	=14
8.c}	doum,	.	.
*	*pline:R1Har	*	*
{16cc	La	.	.
8cc	rim	.	.
8cc	doum	.	.
=15	=15	=15	=15
8dd	dim,	.	.
*	*pline:R2r	*	*
8cc	doum	.	.
8b-	dim	.	.
8g	doum	.	.
=16	=16	=16	=16
8f}}	doum.	.	.
==	==	==	==
*-	*-	*-	*-
!!!EED: Ève Poudrier
!!!EEV: 2025/June/24
